assets/career-new/Health.svg

<svg width="120" height="120" viewBox="0 0 120 120" fill="none" xmlns="http://www.w3.org/2000/svg">
<g clip-path="url(#clip0_521_628)">
<path fill-rule="evenodd" clip-rule="evenodd" d="M60.0009 14.4769C45.5759 -4.68212 22.2809 -2.97612 10.0829 8.99588C-2.70006 21.5409 -3.65706 46.6179 9.11294 71.7089C17.5779 89.4499 39.1499 107.356 57.2519 119.2C58.9209 120.292 61.0809 120.292 62.7499 119.2C80.8589 107.351 102.441 89.4359 110.912 71.6629C123.659 46.6019 122.698 21.5369 109.92 8.99588C97.7209 -2.97612 74.4259 -4.68212 60.0009 14.4769ZM16.9909 65.0439C17.3359 65.7689 17.6939 66.4949 18.0639 67.2219C18.0839 67.2619 18.1039 67.3029 18.1239 67.3439C25.4849 82.8239 43.9139 98.1719 60.0009 109.024C76.0879 98.1719 94.5169 82.8239 101.878 67.3439C101.898 67.3029 101.918 67.2619 101.939 67.2209C108.384 54.5699 111.076 41.9419 109.787 31.5679C109.009 25.3119 106.777 19.9269 102.891 16.1129C93.2449 6.64688 74.113 7.26788 64.4679 26.2009C63.6139 27.8779 61.8869 28.9339 60.0009 28.9339C58.1149 28.9339 56.3889 27.8779 55.5349 26.2009C45.8889 7.26788 26.7569 6.64688 17.1119 16.1129C13.2249 19.9269 10.9929 25.3119 10.2159 31.5679C9.34294 38.5939 10.2959 46.6539 13.0049 55.0569H28.2209L37.7609 40.3589C38.8249 38.7199 40.7489 37.8499 42.6869 38.1299C44.6239 38.4099 46.2209 39.7899 46.7729 41.6629L53.7069 65.1629L58.7979 57.2989C59.7209 55.8739 61.3059 55.0129 63.0069 55.0129H77.0339C79.7989 55.0129 82.0429 57.2499 82.0429 60.0059C82.0429 62.7629 79.7989 64.9999 77.0339 64.9999H65.7359L56.1949 79.7369C55.1329 81.3779 53.2089 82.2509 51.2699 81.9709C49.3309 81.6919 47.7329 80.3119 47.1799 78.4379L40.2419 54.9219L35.1519 62.7629C34.2289 64.1859 32.6459 65.0439 30.9459 65.0439H16.9909Z" fill="url(#paint0_linear_521_628)"/>
</g>
<defs>
<linearGradient id="paint0_linear_521_628" x1="0.00193768" y1="0.0188846" x2="121.002" y2="120.019" gradientUnits="userSpaceOnUse">
<stop stop-color="#FF0CF5"/>
<stop offset="1" stop-color="#0575E6"/>
</linearGradient>
<clipPath id="clip0_521_628">
<rect width="120" height="120" fill="white"/>
</clipPath>
</defs>
</svg>

<svg xmlns="http://www.w3.org/2000/svg" width="120" height="120" fill="none" xmlns:v="https://vecta.io/nano"><g clip-path="url(#B)"><path fill-rule="evenodd" d="M60.001 14.477C45.576-4.682 22.281-2.976 10.083 8.996-2.7 21.541-3.657 46.618 9.113 71.709 17.578 89.45 39.15 107.356 57.252 119.2c1.669 1.092 3.829 1.092 5.498 0 18.109-11.849 39.691-29.764 48.162-47.537 12.747-25.061 11.786-50.126-.992-62.667C97.721-2.976 74.426-4.682 60.001 14.477zm-43.01 50.567l1.073 2.178.06.122c7.361 15.48 25.79 30.828 41.877 41.68 16.087-10.852 34.516-26.2 41.877-41.68l.061-.123c6.445-12.651 9.137-25.279 7.848-35.653-.778-6.256-3.01-11.641-6.896-15.455-9.646-9.466-28.778-8.845-38.423 10.088a5.01 5.01 0 0 1-8.933 0C45.889 7.268 26.757 6.647 17.112 16.113c-3.887 3.814-6.119 9.199-6.896 15.455-.873 7.026.08 15.086 2.789 23.489h15.216l9.54-14.698c1.064-1.639 2.988-2.509 4.926-2.229s3.534 1.66 4.086 3.533l6.934 23.5 5.091-7.864c.923-1.425 2.508-2.286 4.209-2.286h14.027c2.765 0 5.009 2.237 5.009 4.993S79.799 65 77.034 65H65.736l-9.541 14.737c-1.062 1.641-2.986 2.514-4.925 2.234s-3.537-1.659-4.09-3.533l-6.938-23.516-5.09 7.841a5.01 5.01 0 0 1-4.206 2.281H16.991z" fill="url(#A)"/></g><defs><linearGradient id="A" x1=".002" y1=".019" x2="121.002" y2="120.019" gradientUnits="userSpaceOnUse"><stop stop-color="#ff0cf5"/><stop offset="1" stop-color="#0575e6"/></linearGradient><clipPath id="B"><path fill="#fff" d="M0 0h120v120H0z"/></clipPath></defs></svg>
